X: 8193
T: Cooley's
R: reel
M: 4/4
K: Edorian
|:{A}GF|EBBA B2 EB|B2 AB dBAG|F/E/D AD BDAD|F/E/D AD dAFD|
EBBA B2 EB|B2 AB defg|afec dBAF|DE F/E/D E2:|
|:gf|eB B2 eBgB|eB B2 gedB|A2 FA DAFA|BA FA defg|
eB B2 egfg|eB B2 defg|afec dBAF|DE F/E/D E2:|

